; generated by PrusaSlicer 2.9.4 on 2026-02-08 at 20:48:00 UTC


;
;

;
;

;
;

;
;
; 

; external perimeters extrusion width = 0.45mm
; perimeters extrusion width = 0.45mm
; infill extrusion width = 0.45mm
; solid infill extrusion width = 0.45mm
; top infill extrusion width = 0.42mm
; support material extrusion width = 0.40mm
; first layer extrusion width = 0.50mm

; external perimeters extrusion width = 0.45mm
; perimeters extrusion width = 0.45mm
; infill extrusion width = 0.45mm
; solid infill extrusion width = 0.45mm
; top infill extrusion width = 0.42mm
; support material extrusion width = 0.40mm
; first layer extrusion width = 0.50mm

M73 P0 R28
M73 Q0 S29
M201 X4000 Y4000 Z200 E2500 ; sets maximum accelerations, mm/sec^2
M203 X300 Y300 Z12 E120 ; sets maximum feedrates, mm / sec
M204 P4000 R1250 T4000 ; sets acceleration (P, T) and retract acceleration (R), mm/sec^2
M205 X8.00 Y8.00 Z2.00 E5.00 ; sets the jerk limits, mm/sec
M205 S0 T0 ; sets the minimum extruding and travel feed rate, mm/sec

M486 S0
M486 Ahousing-Body
M486 S-1
M486 S1
M486 Ahousing-Body001
M486 S-1

;TYPE:Custom
M17 ; enable steppers
M862.1 P0.4 A0 F0 ; nozzle check
M862.3 P "MK3.5" ; printer model check
M862.5 P2 ; g-code level check
M862.6 P"Input shaper" ; FW feature check
M115 U6.4.0+11974

M555 X104.45 Y61.445 W42.4823 H55.055

G90 ; use absolute coordinates
M83 ; extruder relative mode

M140 S85 ; set bed temp
M104 T0 S170 ; set extruder temp for bed leveling
M109 T0 R170 ; wait for temp
M190 S85 ; wait for bed temp

G28 ; home all

G29 P1 ; invalidate mbl & probe print area
G29 P1 X23 Y5 W80 H20 C ; probe near purge place
G29 P3.2 ; interpolate mbl probes
G29 P3.13 ; extrapolate mbl outside probe area
G29 A ; activate mbl

; prepare for purge
M104 S240
G0 X0 Y-4 Z15 F4800 ; move away and ready for the purge
M109 S240

; Extrude purge line

G92 E0 ; reset extruder position
G0 E7 X15 Z0.2 F500 ; purge
M73 Q0 S28
G0 X25 E4 F500 ; purge
G0 X35 E4 F650 ; purge
G0 X45 E4 F800 ; purge
G0 X48 Z0.05 F8000 ; wipe, move close to the bed
G0 X51 Z0.2 F8000 ; wipe, move quickly away from the bed

G92 E0
M221 S100 ; reset flow to 100%
G21 ; set units to millimeters
G90 ; use absolute coordinates
M83 ; use relative distances for extrusion





M572 S0.052 ; Filament gcode
M107
;LAYER_CHANGE
;Z:0.2
;HEIGHT:0.2
G1 E-1 F2100
G1 Z.4 F720
M486 S0
G1 X105.357 Y94.407 F18000
G1 Z.2 F720
G1 E1 F2100
M204 P500
;TYPE:Perimeter
;WIDTH:0.499999
G1 F1800
G1 X144.643 Y94.407 E1.49311
G1 X144.643 Y115.593 E.8052
G1 X105.357 Y115.593 E1.49311
G1 X105.357 Y94.467 E.80292
M204 P2500
M204 T250
G1 X104.9 Y93.95 F18000
M204 T4000
M204 P500
;TYPE:External perimeter
G1 F1800
G1 X145.1 Y93.95 E1.52785
G1 X145.1 Y116.05 E.83994
G1 X104.9 Y116.05 E1.52785
G1 X104.9 Y94.01 E.83766
M204 P2500
;WIPE_START
G1 F14400
G1 X104.9 Y93.95 E-.00831
G1 X112.058 Y93.95 E-.99169
;WIPE_END
G1 Z.4 F720
G1 X144.46 Y95.52 F18000
G1 Z.2 F720
G1 E1 F2100
M204 P500
;TYPE:Solid infill
;WIDTH:0.502783
G1 F5218.946
G1 X143.736 Y94.796 E.03915
G1 X143.086 Y94.796 E.02485
G1 X144.254 Y95.964 E.06316
G1 X144.254 Y96.615 E.02489
G1 X142.435 Y94.796 E.09836
G1 X141.785 Y94.796 E.02485
G1 X144.254 Y97.265 E.13351
G1 X144.254 Y97.915 E.02485
G1 X141.135 Y94.796 E.16866
G1 X140.484 Y94.796 E.02489
G1 X144.254 Y98.566 E.20387
M73 Q1 S28
G1 X144.254 Y99.216 E.02485
M73 P1 R28
G1 X139.834 Y94.796 E.23902
G1 X139.183 Y94.796 E.02489
G1 X144.254 Y99.867 E.27422
G1 X144.254 Y100.517 E.02485
G1 X138.533 Y94.796 E.30937
G1 X137.883 Y94.796 E.02485
G1 X144.254 Y101.167 E.34452
G1 X144.254 Y101.818 E.02489
G1 X137.232 Y94.796 E.37972
G1 X136.582 Y94.796 E.02485
G1 X144.254 Y102.468 E.41487
G1 X144.254 Y103.118 E.02485
G1 X135.932 Y94.796 E.45002
G1 X135.281 Y94.796 E.02489
G1 X144.254 Y103.769 E.48523
G1 X144.254 Y104.419 E.02485
G1 X134.631 Y94.796 E.52038
G1 X133.981 Y94.796 E.02485
G1 X144.254 Y105.069 E.55553
G1 X144.254 Y105.72 E.02489
G1 X133.33 Y94.796 E.59073
G1 X132.68 Y94.796 E.02485
G1 X144.254 Y106.37 E.62588
G1 X144.254 Y107.02 E.02485
G1 X132.03 Y94.796 E.66103
G1 X131.379 Y94.796 E.02489
G1 X144.254 Y107.671 E.69623
G1 X144.254 Y108.321 E.02485
G1 X130.729 Y94.796 E.73138
G1 X130.079 Y94.796 E.02485
G1 X144.254 Y108.971 E.76653
G1 X144.254 Y109.622 E.02489
G1 X129.428 Y94.796 E.80174
G1 X128.778 Y94.796 E.02485
G1 X144.254 Y110.272 E.83689
G1 X144.254 Y110.922 E.02485
G1 X128.128 Y94.796 E.87204
G1 X127.477 Y94.796 E.02489
G1 X144.254 Y111.573 E.90724
G1 X144.254 Y112.223 E.02485
G1 X126.827 Y94.796 E.94239
G1 X126.177 Y94.796 E.02485
G1 X144.254 Y112.873 E.97754
G1 X144.254 Y113.524 E.02489
G1 X125.526 Y94.796 E1.01274
G1 X124.876 Y94.796 E.02485
G1 X144.254 Y114.174 E1.04789
G1 X144.254 Y114.824 E.02485
G1 X124.226 Y94.796 E1.08304
G1 X123.575 Y94.796 E.02489
G1 X143.984 Y115.204 E1.10362
G1 X143.334 Y115.204 E.02485
G1 X122.925 Y94.796 E1.10362
G1 X122.275 Y94.796 E.02485
G1 X142.683 Y115.204 E1.10359
G1 X142.033 Y115.204 E.02485
G1 X121.624 Y94.796 E1.10362
G1 X120.974 Y94.796 E.02485
G1 X141.383 Y115.204 E1.10362
G1 X140.732 Y115.204 E.02489
G1 X120.323 Y94.796 E1.10362
G1 X119.673 Y94.796 E.02485
G1 X140.082 Y115.204 E1.10362
G1 X139.432 Y115.204 E.02485
G1 X119.023 Y94.796 E1.10362
G1 X118.372 Y94.796 E.02489
G1 X138.781 Y115.204 E1.10362
G1 X138.131 Y115.204 E.02485
G1 X117.722 Y94.796 E1.10362
G1 X117.072 Y94.796 E.02485
G1 X137.481 Y115.204 E1.10362
G1 X136.83 Y115.204 E.02489
G1 X116.421 Y94.796 E1.10362
G1 X115.771 Y94.796 E.02485
G1 X136.18 Y115.204 E1.10362
G1 X135.53 Y115.204 E.02485
G1 X115.121 Y94.796 E1.10362
G1 X114.47 Y94.796 E.02489
G1 X134.879 Y115.204 E1.10362
G1 X134.229 Y115.204 E.02485
G1 X113.82 Y94.796 E1.10362
M73 P2 R28
G1 X113.17 Y94.796 E.02485
M73 Q2 S28
G1 X133.579 Y115.204 E1.10362
G1 X132.928 Y115.204 E.02489
G1 X112.519 Y94.796 E1.10362
G1 X111.869 Y94.796 E.02485
G1 X132.278 Y115.204 E1.10362
G1 X131.627 Y115.204 E.02489
G1 X111.219 Y94.796 E1.10359
G1 X110.568 Y94.796 E.02489
G1 X130.977 Y115.204 E1.10362
G1 X130.327 Y115.204 E.02485
G1 X109.918 Y94.796 E1.10362
G1 X109.268 Y94.796 E.02485
G1 X129.676 Y115.204 E1.10359
G1 X129.026 Y115.204 E.02485
G1 X108.617 Y94.796 E1.10362
G1 X107.967 Y94.796 E.02485
G1 X128.376 Y115.204 E1.10362
G1 X127.725 Y115.204 E.02489
G1 X107.317 Y94.796 E1.10359
G1 X106.666 Y94.796 E.02489
G1 X127.075 Y115.204 E1.10362
G1 X126.425 Y115.204 E.02485
G1 X106.016 Y94.796 E1.10362
G1 X105.746 Y94.796 E.01032
G1 X105.746 Y95.176 E.01453
G1 X125.774 Y115.204 E1.08304
G1 X125.124 Y115.204 E.02485
G1 X105.746 Y95.826 E1.04789
G1 X105.746 Y96.476 E.02485
M73 P2 R27
G1 X124.474 Y115.204 E1.01274
G1 X123.823 Y115.204 E.02489
G1 X105.746 Y97.127 E.97754
G1 X105.746 Y97.777 E.02485
G1 X123.173 Y115.204 E.94239
G1 X122.523 Y115.204 E.02485
G1 X105.746 Y98.427 E.90724
G1 X105.746 Y99.078 E.02489
G1 X121.872 Y115.204 E.87204
G1 X121.222 Y115.204 E.02485
G1 X105.746 Y99.728 E.83689
G1 X105.746 Y100.378 E.02485
G1 X120.572 Y115.204 E.80174
G1 X119.921 Y115.204 E.02489
G1 X105.746 Y101.029 E.76653
G1 X105.746 Y101.679 E.02485
G1 X119.271 Y115.204 E.73138
G1 X118.621 Y115.204 E.02485
G1 X105.746 Y102.329 E.69623
G1 X105.746 Y102.98 E.02489
G1 X117.97 Y115.204 E.66103
G1 X117.32 Y115.204 E.02485
G1 X105.746 Y103.63 E.62588
G1 X105.746 Y104.28 E.02485
G1 X116.67 Y115.204 E.59073
G1 X116.019 Y115.204 E.02489
G1 X105.746 Y104.931 E.55553
G1 X105.746 Y105.581 E.02485
G1 X115.369 Y115.204 E.52038
G1 X114.719 Y115.204 E.02485
G1 X105.746 Y106.231 E.48523
G1 X105.746 Y106.882 E.02489
G1 X114.068 Y115.204 E.45002
G1 X113.418 Y115.204 E.02485
G1 X105.746 Y107.532 E.41487
G1 X105.746 Y108.183 E.02489
G1 X112.767 Y115.204 E.37967
G1 X112.117 Y115.204 E.02485
G1 X105.746 Y108.833 E.34452
G1 X105.746 Y109.483 E.02485
G1 X111.467 Y115.204 E.30937
G1 X110.816 Y115.204 E.02489
G1 X105.746 Y110.134 E.27417
G1 X105.746 Y110.784 E.02485
G1 X110.166 Y115.204 E.23902
G1 X109.516 Y115.204 E.02485
G1 X105.746 Y111.434 E.20387
G1 X105.746 Y112.085 E.02489
G1 X108.865 Y115.204 E.16866
G1 X108.215 Y115.204 E.02485
G1 X105.746 Y112.735 E.13351
G1 X105.746 Y113.385 E.02485
G1 X107.565 Y115.204 E.09836
G1 X106.914 Y115.204 E.02489
G1 X105.746 Y114.036 E.06316
G1 X105.746 Y114.686 E.02485
G1 X106.47 Y115.41 E.03915
M204 P2500
;WIPE_START
G1 F14400
G1 X105.746 Y114.686 E-.14185
G1 X105.746 Y114.036 E-.09005
G1 X106.914 Y115.204 E-.22884
G1 X107.565 Y115.204 E-.09019
G1 X105.746 Y113.385 E-.35639
G1 X105.746 Y112.735 E-.09005
M73 P3 R27
G1 X105.759 Y112.748 E-.00263
;WIPE_END
G1 Z.4 F720
M486 S-1
M486 S1
G1 X144.645 Y85.637 F18000
G1 Z.2 F720
M73 Q3 S28
G1 E1 F2100
M204 P500
;TYPE:Perimeter
;WIDTH:0.499999
G1 F1800
G1 X144.538 Y85.747 E.00583
G1 X144.173 Y85.852 E.01443
G1 X140.53 Y85.852 E.13846
G1 X140.207 Y85.771 E.01266
G1 X139.981 Y85.578 E.0113
G3 X139.844 Y85.166 I.696 J-.461 E.01669
G1 X139.844 Y68.723 E.62494
G3 X139.981 Y68.312 I.833 J.05 E.01666
G1 X140.207 Y68.119 E.0113
G1 X140.53 Y68.038 E.01266
G1 X144.173 Y68.038 E.13846
G1 X144.538 Y68.143 E.01443
G1 X144.761 Y68.372 E.01215
G1 X144.858 Y68.723 E.01384
G1 X144.858 Y85.166 E.62494
G1 X144.761 Y85.518 E.01388
G1 X144.687 Y85.594 E.00403
M204 P2500
M204 T250
G1 X144.311 Y85.324 F18000
M204 T4000
M204 P500
;TYPE:External perimeter
G1 F1800
G1 X144.207 Y85.395 E.00479
G1 X140.53 Y85.395 E.13975
G1 X140.347 Y85.304 E.00777
G1 X140.301 Y85.166 E.00553
G1 X140.301 Y68.723 E.62494
G1 X140.347 Y68.586 E.00549
G1 X140.496 Y68.495 E.00664
G1 X144.173 Y68.495 E.13975
G3 X144.401 Y68.723 I-.013 J.241 E.01342
G1 X144.401 Y85.166 E.62494
G1 X144.369 Y85.284 E.00465
G1 X144.36 Y85.289 E.00039
M204 P2500
;WIPE_START
G1 F14400
G1 X144.311 Y85.324 E-.00834
G1 X144.207 Y85.395 E-.01745
G1 X140.53 Y85.395 E-.50942
G1 X140.347 Y85.304 E-.02831
G1 X140.301 Y85.166 E-.02015
G1 X140.301 Y82.161 E-.41633
;WIPE_END
G1 Z.4 F720
G1 X107.691 Y86.847 F18000
G1 Z.2 F720
G1 E1 F2100
M204 P500
;TYPE:Perimeter
;WIDTH:0.505701
G1 F1800
G1 X107.583 Y86.792 E.00466
;WIDTH:0.54191
G1 X107.517 Y86.696 E.00483
;WIDTH:0.583821
G1 X107.451 Y86.599 E.00528
;WIDTH:0.625731
G1 X107.385 Y86.503 E.00565
G1 X107.385 Y77.541 E.43431
G1 X107.452 Y77.404 E.00739
;WIDTH:0.583821
G1 X107.518 Y77.267 E.00684
;WIDTH:0.54191
G1 X107.585 Y77.129 E.00636
;WIDTH:0.499999
G1 X107.87 Y76.908 E.01371
G1 X108.134 Y76.855 E.01023
G1 X114.376 Y76.855 E.23724
G1 X114.644 Y76.91 E.0104
G1 X114.855 Y77.05 E.00962
G1 X115.013 Y77.287 E.01083
G1 X115.062 Y77.541 E.00983
G1 X115.062 Y86.384 E.33609
G1 X114.925 Y86.795 E.01647
;WIDTH:0.505701
G1 X114.485 Y87.072 E.02001
G1 X108.134 Y87.072 E.24439
G1 X107.744 Y86.874 E.01683
M204 P2500
M204 T250
G1 X108.003 Y86.547 F18000
M204 T4000
M204 P500
;TYPE:External perimeter
;WIDTH:0.499999
G1 F1800
G1 X107.95 Y86.52 E.00226
G1 X107.905 Y86.384 E.00544
G1 X107.905 Y77.541 E.33609
G1 X107.951 Y77.404 E.00549
G1 X108.134 Y77.312 E.00778
G1 X114.376 Y77.312 E.23724
G1 X114.536 Y77.377 E.00656
G1 X114.605 Y77.541 E.00676
G1 X114.605 Y86.384 E.33609
G1 X114.559 Y86.521 E.00549
G1 X114.376 Y86.612 E.00777
G1 X108.134 Y86.612 E.23724
G1 X108.057 Y86.574 E.00326
M204 P2500
;WIPE_START
G1 F14400
G1 X108.003 Y86.547 E-.00836
G1 X107.95 Y86.52 E-.00824
G1 X107.905 Y86.384 E-.01985
G1 X107.905 Y79.429 E-.96355
;WIPE_END
G1 Z.4 F720
G1 X106.739 Y66.352 F18000
G1 Z.2 F720
G1 E1 F2100
M204 P500
;TYPE:Perimeter
G1 F1800
G1 X146.025 Y66.352 E1.49311
G1 X146.025 Y87.538 E.8052
M73 Q3 S27
G1 X115.296 Y87.538 E1.16789
;WIDTH:0.505701
G1 X106.739 Y87.538 E.32928
;WIDTH:0.499999
G1 X106.739 Y87.07 E.01779
;WIDTH:0.54191
G1 X106.76 Y86.841 E.00954
;WIDTH:0.583821
G1 X106.781 Y86.613 E.0103
;WIDTH:0.625731
G1 X106.802 Y86.384 E.01114
G1 X106.802 Y77.541 E.42854
G1 X106.781 Y77.31 E.01124
;WIDTH:0.583821
G1 X106.76 Y77.079 E.01043
;WIDTH:0.54191
G1 X106.739 Y76.848 E.00962
;WIDTH:0.499999
G1 X106.739 Y66.412 E.39663
M204 P2500
M204 T250
G1 X106.282 Y65.895 F18000
M204 T4000
M204 P500
;TYPE:External perimeter
G1 F1800
G1 X146.482 Y65.895 E1.52785
G1 X146.482 Y87.995 E.83994
G1 X106.282 Y87.995 E1.52785
G1 X106.282 Y65.955 E.83766
M204 P2500
;WIPE_START
G1 F14400
G1 X106.282 Y65.895 E-.00831
G1 X113.44 Y65.895 E-.99169
;WIPE_END
G1 Z.4 F720
G1 X144.915 Y66.535 F18000
G1 Z.2 F720
G1 E1 F2100
M204 P500
;TYPE:Solid infill
;WIDTH:0.501525
G1 F5233.262
G1 X145.637 Y67.256 E.03891
G1 X145.637 Y67.905 E.02475
G1 X144.472 Y66.741 E.0628
G1 X143.824 Y66.741 E.02471
G1 X145.637 Y68.554 E.09777
G1 X145.637 Y69.202 E.02471
G1 X145.247 Y68.812 E.02103
G1 X145.247 Y68.702 E.00419
G1 X145.101 Y68.172 E.02096
G1 X144.745 Y67.808 E.01942
G1 X144.195 Y67.649 E.02183
G1 X144.084 Y67.649 E.00423
G1 X143.175 Y66.741 E.04899
G1 X142.527 Y66.741 E.02471
G1 X143.435 Y67.649 E.04897
G1 X142.787 Y67.649 E.02471
G1 X141.878 Y66.741 E.04899
G1 X141.23 Y66.741 E.02471
G1 X142.138 Y67.649 E.04897
G1 X141.49 Y67.649 E.02471
G1 X140.581 Y66.741 E.04899
G1 X139.932 Y66.741 E.02475
G1 X140.841 Y67.649 E.04899
G2 X140.338 Y67.665 I-.133 J3.697 E.01921
G1 X140.242 Y67.699 E.00388
G1 X139.284 Y66.741 E.05166
G1 X138.635 Y66.741 E.02475
G1 X139.831 Y67.936 E.06447
G1 X139.67 Y68.075 E.00811
G1 X139.554 Y68.307 E.00989
G1 X137.987 Y66.741 E.08448
G1 X137.338 Y66.741 E.02475
G1 X139.456 Y68.858 E.11419
G1 X139.456 Y69.507 E.02475
M73 P4 R27
G1 X136.69 Y66.741 E.14917
G1 X136.041 Y66.741 E.02475
M73 Q4 S27
G1 X139.456 Y70.155 E.18414
G1 X139.456 Y70.804 E.02475
G1 X135.392 Y66.741 E.21914
G1 X134.744 Y66.741 E.02471
G1 X139.456 Y71.452 E.25408
G1 X139.456 Y72.101 E.02475
G1 X134.095 Y66.741 E.28908
G1 X133.447 Y66.741 E.02471
G1 X139.456 Y72.75 E.32406
G1 X139.456 Y73.398 E.02471
G1 X132.798 Y66.741 E.35903
G1 X132.15 Y66.741 E.02471
G1 X139.456 Y74.047 E.394
G1 X139.456 Y74.695 E.02471
G1 X131.501 Y66.741 E.42897
G1 X130.852 Y66.741 E.02475
G1 X139.456 Y75.344 E.46397
G1 X139.456 Y75.992 E.02471
G1 X130.204 Y66.741 E.49892
G1 X129.555 Y66.741 E.02475
G1 X139.456 Y76.641 E.53392
G1 X139.456 Y77.29 E.02475
G1 X128.907 Y66.741 E.56889
G1 X128.258 Y66.741 E.02475
G1 X139.456 Y77.938 E.60386
G1 X139.456 Y78.587 E.02475
G1 X127.61 Y66.741 E.63884
G1 X126.961 Y66.741 E.02475
G1 X139.456 Y79.235 E.67381
G1 X139.456 Y79.884 E.02475
G1 X126.313 Y66.741 E.70878
G1 X125.664 Y66.741 E.02475
G1 X139.456 Y80.532 E.74375
G1 X139.456 Y81.181 E.02475
G1 X125.015 Y66.741 E.77875
G1 X124.367 Y66.741 E.02471
G1 X139.456 Y81.829 E.8137
G1 X139.456 Y82.478 E.02475
G1 X123.718 Y66.741 E.8487
G1 X123.07 Y66.741 E.02471
G1 X139.456 Y83.127 E.88367
G1 X139.456 Y83.775 E.02471
G1 X122.421 Y66.741 E.91864
G1 X121.773 Y66.741 E.02471
G1 X139.661 Y84.629 E.96467
M204 P2500
;WIPE_START
G1 F14400
G1 X134.557 Y79.525 E-1
;WIPE_END
G1 Z.4 F720
G1 X145.842 Y70.056 F18000
G1 Z.2 F720
G1 E1 F2100
M204 P500
G1 F5233.262
G1 X145.247 Y69.461 E.03209
G1 X145.247 Y70.109 E.02471
G1 X145.637 Y70.499 E.02103
G1 X145.637 Y71.148 E.02475
G1 X145.247 Y70.758 E.02103
G1 X145.247 Y71.407 E.02475
G1 X145.637 Y71.796 E.02101
G1 X145.637 Y72.445 E.02475
G1 X145.247 Y72.055 E.02103
G1 X145.247 Y72.704 E.02475
G1 X145.637 Y73.093 E.02101
G1 X145.637 Y73.742 E.02475
G1 X145.247 Y73.352 E.02103
G1 X145.247 Y74.001 E.02475
G1 X145.637 Y74.391 E.02103
G1 X145.637 Y75.039 E.02471
G1 X145.247 Y74.649 E.02103
G1 X145.247 Y75.298 E.02475
G1 X145.637 Y75.688 E.02103
G1 X145.637 Y76.336 E.02471
G1 X145.247 Y75.946 E.02103
G1 X145.247 Y76.595 E.02475
G1 X145.637 Y76.985 E.02103
G1 X145.637 Y77.633 E.02471
G1 X145.247 Y77.244 E.02101
G1 X145.247 Y77.892 E.02471
G1 X145.637 Y78.282 E.02103
G1 X145.637 Y78.931 E.02475
G1 X145.247 Y78.541 E.02103
G1 X145.247 Y79.189 E.02471
G1 X145.637 Y79.579 E.02103
G1 X145.637 Y80.228 E.02475
G1 X145.247 Y79.838 E.02103
G1 X145.247 Y80.486 E.02471
G1 X145.637 Y80.876 E.02103
G1 X145.637 Y81.525 E.02475
G1 X145.247 Y81.135 E.02103
G1 X145.247 Y81.784 E.02475
G1 X145.637 Y82.173 E.02101
G1 X145.637 Y82.822 E.02475
G1 X145.247 Y82.432 E.02103
G1 X145.247 Y83.081 E.02475
G1 X145.637 Y83.471 E.02103
G1 X145.637 Y84.119 E.02471
G1 X145.247 Y83.729 E.02103
G1 X145.247 Y84.378 E.02475
G1 X145.637 Y84.768 E.02103
